packages/core/src/svgs/tokens/branded/NGM.svg

<svg width="24" height="24" viewBox="0 0 24 24" fill="none" xmlns="http://www.w3.org/2000/svg">
<path fill-rule="evenodd" clip-rule="evenodd" d="M2 11.9999H3.80624C3.8062 13.0727 4.01862 14.1349 4.43122 15.1251C4.84384 16.1155 5.44848 17.0143 6.21025 17.7697C6.97201 18.5249 7.87584 19.122 8.86956 19.5262C9.86334 19.9305 10.9272 20.1341 11.9999 20.1249V22C9.34782 22 6.80427 20.9464 4.92892 19.0709C3.05355 17.1957 2 14.6521 2 11.9999ZM11.9999 2V3.87499C14.1429 3.89311 16.1919 4.75715 17.7008 6.27891C19.2096 7.80068 20.0563 9.85694 20.0562 11.9999H22C22 9.34783 20.9463 6.80427 19.0711 4.92892C17.1957 3.05355 14.652 2 11.9999 2ZM15.0999 14.1062C14.6795 14.7254 14.0833 15.2048 13.3881 15.4823C12.6931 15.76 11.9307 15.8231 11.1993 15.6639C10.468 15.5045 9.80107 15.13 9.28423 14.5883C8.76758 14.0469 8.42477 13.363 8.29998 12.625H6.99998V11.3749H8.29998C8.44463 10.498 8.89603 9.70104 9.57371 9.12602C10.2514 8.55096 11.1112 8.2353 11.9999 8.2353C12.8888 8.2353 13.7486 8.55096 14.4263 9.12602C15.1038 9.70104 15.5553 10.498 15.7 11.3749H17.3125L16.6874 12.625H9.89994C10.0128 13.0087 10.2286 13.3542 10.5241 13.6237C10.8196 13.8933 11.1833 14.0768 11.5757 14.154C11.9681 14.2313 12.3741 14.1995 12.7498 14.0622C13.1255 13.9249 13.4562 13.6872 13.7062 13.375L15.0999 14.1062ZM9.89994 11.3749C10.0343 10.9231 10.3109 10.5266 10.6888 10.2447C11.0666 9.96281 11.5254 9.81056 11.9969 9.81056C12.4682 9.81056 12.927 9.96281 13.3048 10.2447C13.6827 10.5266 13.9595 10.9231 14.0937 11.3749H9.89994Z" fill="#CBF6EC"/>
</svg>

<svg xmlns="http://www.w3.org/2000/svg" width="24" height="24" fill="none" viewBox="0 0 24 24">
    <path fill="#CBF6EC" fill-rule="evenodd" d="M2 12h1.806A8.125 8.125 0 0 0 12 20.125V22A10 10 0 0 1 2 12M12 2v1.875A8.125 8.125 0 0 1 20.056 12H22A10 10 0 0 0 12 2m3.1 12.106a3.75 3.75 0 0 1-6.8-1.481H7v-1.25h1.3a3.75 3.75 0 0 1 7.4 0h1.613l-.626 1.25H9.9a2.187 2.187 0 0 0 3.806.75zm-5.2-2.731a2.188 2.188 0 0 1 4.194 0z" clip-rule="evenodd"/>
</svg>
